assets/icons/phone-2.svg

<svg width="15" height="25" viewBox="0 0 15 25" fill="none" xmlns="http://www.w3.org/2000/svg">
<path d="M3.09896 24.9527H11.5413C12.4756 24.9527 13.2257 24.6812 13.7915 24.1382C14.3573 23.5951 14.6403 22.8792 14.6403 21.9906V3.79559C14.6403 2.90692 14.3573 2.19105 13.7915 1.64797C13.2257 1.1049 12.4756 0.833359 11.5413 0.833359H3.09896C2.17231 0.833359 1.42415 1.1049 0.854492 1.64797C0.284831 2.19105 0 2.90692 0 3.79559V21.9906C0 22.8792 0.284831 23.5951 0.854492 24.1382C1.42415 24.6812 2.17231 24.9527 3.09896 24.9527ZM3.33822 23.1185C2.85211 23.1185 2.47993 22.9951 2.22168 22.7482C1.96344 22.5013 1.83431 22.1501 1.83431 21.6944V4.09182C1.83431 3.63609 1.96344 3.2848 2.22168 3.03795C2.47993 2.79109 2.85211 2.66767 3.33822 2.66767H4.79655C4.97884 2.66767 5.06998 2.75502 5.06998 2.92971V3.19175C5.06998 3.42721 5.14214 3.619 5.28646 3.76711C5.43077 3.91522 5.62066 3.98928 5.85612 3.98928H8.79557C9.03862 3.98928 9.23041 3.91522 9.37094 3.76711C9.51145 3.619 9.5817 3.42721 9.5817 3.19175V2.92971C9.5817 2.75502 9.67285 2.66767 9.85515 2.66767H11.3135C11.792 2.66767 12.1604 2.79109 12.4186 3.03795C12.6769 3.2848 12.806 3.63609 12.806 4.09182V21.6944C12.806 22.1501 12.6769 22.5013 12.4186 22.7482C12.1604 22.9951 11.792 23.1185 11.3135 23.1185H3.33822ZM4.91048 22.2868H9.75261C9.90452 22.2868 10.0298 22.2374 10.1286 22.1386C10.2273 22.0399 10.2767 21.9108 10.2767 21.7513C10.2767 21.5918 10.2273 21.4645 10.1286 21.3696C10.0298 21.2747 9.90452 21.2272 9.75261 21.2272H4.91048C4.75857 21.2272 4.63135 21.2747 4.52881 21.3696C4.42627 21.4645 4.375 21.5918 4.375 21.7513C4.375 21.9108 4.42627 22.0399 4.52881 22.1386C4.63135 22.2374 4.75857 22.2868 4.91048 22.2868Z" fill="white" fill-opacity="0.85"/>
</svg>

<svg xmlns="http://www.w3.org/2000/svg" width="15" height="25" fill="none"><path fill="#fff" fill-opacity=".85" d="M3.099 24.953h8.442q1.402 0 2.25-.815.85-.815.85-2.147V3.796q0-1.334-.85-2.148-.848-.815-2.25-.815H3.1q-1.39 0-2.245.815Q0 2.462 0 3.796V21.99q0 1.332.854 2.147.855.815 2.245.815m.24-1.834q-.731 0-1.117-.37-.388-.372-.388-1.055V4.092q0-.684.388-1.054.387-.37 1.116-.37h1.459q.273 0 .273.262v.262a.8.8 0 0 0 .216.575.76.76 0 0 0 .57.222h2.94q.364 0 .575-.222t.21-.575V2.93q0-.262.274-.262h1.458q.718 0 1.106.37.387.37.387 1.054v17.602q0 .684-.387 1.054-.388.37-1.106.37zm1.571-.832h4.843a.5.5 0 0 0 .376-.148.52.52 0 0 0 .148-.388q0-.24-.148-.381a.52.52 0 0 0-.376-.143H4.91a.54.54 0 0 0-.381.143.5.5 0 0 0-.154.381.513.513 0 0 0 .535.536"/></svg>
